public/new/svg7.svg

<svg fill="none" height="4" viewBox="0 0 8 4" width="8" xmlns="http://www.w3.org/2000/svg" xmlns:xlink="http://www.w3.org/1999/xlink"><clipPath id="a"><path d="m0 0h8v4h-8z"/></clipPath><g clip-path="url(#a)"><path d="m0 .7375 3.698 3.02.298.2425.2965-.245 3.7075-3.06-.5965-.695-3.707 3.061.5935-.001-3.697-3.02z" fill="#77787e"/></g></svg>

<svg width="8" height="4" viewBox="0 0 8 4" fill="none" xmlns="http://www.w3.org/2000/svg">
<g clip-path="url(#clip0_181_9000)">
<path d="M0 0.7375L3.698 3.7575L3.996 4L4.2925 3.755L8 0.695L7.4035 0L3.6965 3.061L4.29 3.06L0.593 0.04L0 0.7375Z" fill="#77787E"/>
</g>
<defs>
<clipPath id="clip0_181_9000">
<rect width="8" height="4" fill="white"/>
</clipPath>
</defs>
</svg>
